src/asset/image/sykepenger.svg

<svg width="20" height="20" viewBox="0 0 20 20" fill="none" xmlns="http://www.w3.org/2000/svg">
<path fill-rule="evenodd" clip-rule="evenodd" d="M13.3333 5.8335H17.9167C19.0658 5.8335 20 6.7685 20 7.91683V17.9168C20 19.0652 19.0658 20.0002 17.9167 20.0002H2.08333C0.934167 20.0002 0 19.0652 0 17.9168V7.91683C0 6.7685 0.934167 5.8335 2.08333 5.8335H6.66667V5.00016C6.66667 4.081 7.41417 3.3335 8.33333 3.3335H11.6667C12.5858 3.3335 13.3333 4.081 13.3333 5.00016V5.8335ZM8.33333 4.16683C7.87333 4.16683 7.5 4.541 7.5 5.00016V5.8335H12.5V5.00016C12.5 4.541 12.1267 4.16683 11.6667 4.16683H8.33333ZM19.1667 17.9168C19.1667 18.606 18.6058 19.1668 17.9167 19.1668H2.08333C1.39417 19.1668 0.833333 18.606 0.833333 17.9168V7.91683C0.833333 7.22766 1.39417 6.66683 2.08333 6.66683H17.9167C18.6058 6.66683 19.1667 7.22766 19.1667 7.91683V17.9168ZM13.75 11.6668H11.6667V9.5835C11.6667 9.3535 11.48 9.16683 11.25 9.16683H8.75C8.52 9.16683 8.33333 9.3535 8.33333 9.5835V11.6668H6.25C6.02 11.6668 5.83333 11.8535 5.83333 12.0835V14.5835C5.83333 14.8135 6.02 15.0002 6.25 15.0002H8.33333V17.0835C8.33333 17.3135 8.52 17.5002 8.75 17.5002H11.25C11.48 17.5002 11.6667 17.3135 11.6667 17.0835V15.0002H13.75C13.98 15.0002 14.1667 14.8135 14.1667 14.5835V12.0835C14.1667 11.8535 13.98 11.6668 13.75 11.6668ZM13.3333 14.1668H11.25C11.02 14.1668 10.8333 14.3535 10.8333 14.5835V16.6668H9.16667V14.5835C9.16667 14.3535 8.98 14.1668 8.75 14.1668H6.66667V12.5002H8.75C8.98 12.5002 9.16667 12.3135 9.16667 12.0835V10.0002H10.8333V12.0835C10.8333 12.3135 11.02 12.5002 11.25 12.5002H13.3333V14.1668Z" fill="#3E3832"/>
</svg>

<svg width="20" height="20" viewBox="0 0 20 20" fill="none" xmlns="http://www.w3.org/2000/svg"><path fill-rule="evenodd" clip-rule="evenodd" d="M13.333 5.833h4.584c1.149 0 2.083.936 2.083 2.084v10A2.086 2.086 0 0117.917 20H2.083A2.086 2.086 0 010 17.917v-10c0-1.148.934-2.083 2.083-2.083h4.584V5c0-.919.747-1.667 1.666-1.667h3.334c.919 0 1.666.748 1.666 1.667v.833zm-5-1.666A.834.834 0 007.5 5v.833h5V5a.834.834 0 00-.833-.833H8.333zm10.834 13.75c0 .689-.561 1.25-1.25 1.25H2.083c-.689 0-1.25-.561-1.25-1.25v-10c0-.69.561-1.25 1.25-1.25h15.834c.689 0 1.25.56 1.25 1.25v10zm-5.417-6.25h-2.083V9.584a.417.417 0 00-.417-.417h-2.5a.417.417 0 00-.417.417v2.083H6.25a.417.417 0 00-.417.417v2.5c0 .23.187.416.417.416h2.083v2.084c0 .23.187.416.417.416h2.5c.23 0 .417-.186.417-.416V15h2.083c.23 0 .417-.187.417-.416v-2.5a.417.417 0 00-.417-.417zm-.417 2.5H11.25a.417.417 0 00-.417.417v2.083H9.167v-2.084a.417.417 0 00-.417-.416H6.667V12.5H8.75c.23 0 .417-.187.417-.416V10h1.666v2.084c0 .23.187.416.417.416h2.083v1.667z" fill="#3E3832"/></svg>
